X:15
T:Hpps simple chords 1
M:3/4
L:1/8
K:Em
d2 [G2G,2B,2D2] A2 | B2 c2 [dG,B,D]d2 |d d2 d2 | [dE,G,B,]d2d d2 | d2 [dD,F,A,C]d2d |
d2 d2 [G2G,2B,2D2] | A2 B2 c2 | [dG,B,D]d2d d2 | d2 [d2D,2F,2A,2C2] c2 |
B2 A4< [G4G,4B,4D4] | d2 | [G2G,2B,2D2] A2 B2 | c2 [dG,B,D]d2d |
d2 d2 [dE,G,B,]d2 |d d2 d2 | [dD,F,A,C]d2d d2 | d2 [G2G,2B,2D2] A2 |
B2 c2 [dG,B,D]d2 |d d2 d2 | [d2D,2F,2A,2C2] c2 B2 | A4< [G4G,4B,4D4] |
d2 [G2G,2B,2D2] | A2 B2 c2 | [dG,B,D]d2d d2 | d2 [dE,G,B,]d2d |
d2 d2 [dD,F,A,C]d2 |d d2 d2 | [G2G,2B,2D2] A2 B2 | c2 [dG,B,D]d2d |
d2 d2 [d2D,2F,2A,2C2] | c2 B2 A2 | [G6G,6B,6D6] | d2 [G2G,2B,2D2] A2 |
B2 c2 [dG,B,D]d2 |d d2 d2 | [dE,G,B,]d2d d2 | d2 [dD,F,A,C]d2d |
d2 d2 [G2G,2B,2D2] | A2 B2 c2 | [dG,B,D]d2d d2 | d2 [d2D,2F,2A,2C2] c2 |
B2 A4< [G4G,4B,4D4] | g2 | g2 f2 =f2 | [eC,E,G,]e2e e2 |
e2 [g2C,2E,2G,2] g2 | f2 e2 [dG,B,D]d2 |d d2 d2 | [d2G,2B,2D2] d2 e2 |
d2 [fD,F,A,C]f2f | f2 f2 [d2D,2F,2A,2C2] | c2 B2 A2 | [G6G,6B,6D6] |
g2 g2 f2 | =f2 [eC,E,G,]e2e | e2 e2 [g2C,2E,2G,2] | g2 f2 e2 |
[dG,B,D]d2d d2 | d2 [d2G,2B,2D2] d2 | e2 d2 [fD,F,A,C]f2 |f f2 f2 |
[d2D,2F,2A,2C2] c2 B2 | A4< [G4G,4B,4D4] |


